X: 1808
T: Archie Menzie's
R: reel
M: 4/4
K: Fmajor
FE|F2CF AFCF|Acde fcAF|G2DG BGDG|Bdef gecA|
F2CF AFCF|Acde fcAc|B/c/dGB A/B/cFA|GECE F2:|
fe|f2cf afef|cfag fed^f|g2dg bg^fg|dgba gfeg|
f2cf afef|cfag fedc|B/c/dGB A/B/cFA|GECE F2:|

